src/assets/images/icons/loadingLogo.svg

<svg width="42" height="42" viewBox="0 0 42 42" fill="none" xmlns="http://www.w3.org/2000/svg">
<path d="M21 42C32.598 42 42 32.598 42 21C42 9.40202 32.598 0 21 0C9.40202 0 0 9.40202 0 21C0 32.598 9.40202 42 21 42Z" fill="#FF481A"/>
<path d="M15.3045 16.0277C14.7376 16.1096 13.5766 16.3213 12.6274 16.7652V16.7789C10.5035 17.9262 9.1308 20.1662 9.1308 22.6452C9.1308 24.8852 10.244 26.9272 12.0196 28.1428V21.2725C12.0127 20.5555 12.5523 19.9203 12.682 19.7906C13.0849 19.3808 14.0206 18.8823 15.6459 18.9916L22.2157 19.012C22.7142 18.3155 23.7727 16.7857 23.9571 15.9935H16.1923C16.1991 15.9935 15.5093 16.0003 15.3045 16.0277ZM26.6888 12.1964C26.1015 11.2062 25.2547 10.3799 24.244 9.81302C23.7591 9.53985 23.1991 9.38278 22.6323 9.35546L22.564 9.34863H12.641V16.0686C13.2079 15.8159 14.1571 15.5359 15.6596 15.454V12.374H22.4957C22.5981 12.3808 22.6937 12.4081 22.7757 12.4491C23.9298 13.0979 24.6127 14.2794 24.6127 15.6111C24.6127 15.7408 24.6059 15.8706 24.5923 15.9935L22.6391 19.3672L18.8215 24.6052L18.6303 24.892C18.0362 25.6364 17.1825 26.1145 16.2469 26.2306V29.2628C18.1454 29.133 19.8801 28.2179 21.0615 26.695L21.1025 26.6472L21.2937 26.3535L25.3162 20.8423L26.1152 19.7906C26.1152 19.7906 26.1152 19.7906 26.122 19.7838L26.1288 19.7769C26.2449 19.6335 26.361 19.4764 26.4635 19.3262C26.4635 19.3262 26.4635 19.3262 26.4703 19.3262C26.8664 18.732 27.4742 17.5847 27.5971 15.9935C27.604 15.8569 27.6108 15.7272 27.6108 15.5906C27.6176 14.3886 27.2966 13.214 26.6888 12.1964ZM30.8547 18.8755C30.0488 17.9399 29.0518 17.2023 27.9454 16.7038C27.8293 17.4072 27.5562 18.5135 26.8732 19.5379C27.5152 19.852 28.0888 20.2959 28.5601 20.8491C29.3796 21.7984 29.8371 23.0208 29.8371 24.2774C29.844 25.6774 29.2908 27.0023 28.2801 28.0199C27.242 29.0647 25.8762 29.6384 24.4215 29.6384H23.7249L15.5845 29.6179L15.6323 19.4013C15.523 19.3945 14.123 19.3262 13.1532 20.0979C12.7708 20.4052 12.5591 20.8696 12.5591 21.3613L12.6069 32.6091L23.7523 32.6569H24.4147C26.6752 32.6569 28.8059 31.7691 30.4108 30.1506C31.9952 28.5594 32.8557 26.4696 32.842 24.2638C32.8557 22.2833 32.1386 20.3711 30.8547 18.8755Z" fill="white"/>
</svg>

<svg width="42" height="42" fill="none" xmlns="http://www.w3.org/2000/svg"><path d="M21 42c11.598 0 21-9.402 21-21S32.598 0 21 0 0 9.402 0 21s9.402 21 21 21Z" fill="#FF481A"/><path d="M15.305 16.028c-.567.082-1.728.293-2.678.737v.014a6.673 6.673 0 0 0-.607 11.364v-6.87c-.007-.718.532-1.353.662-1.482.403-.41 1.339-.909 2.964-.8l6.57.021c.498-.697 1.557-2.226 1.741-3.019h-7.765c.007 0-.683.007-.887.035Zm11.384-3.832a6.603 6.603 0 0 0-2.445-2.383 3.663 3.663 0 0 0-1.612-.458l-.068-.006h-9.923v6.72c.567-.253 1.516-.533 3.019-.615v-3.08h6.836a.738.738 0 0 1 .28.075c1.154.649 1.837 1.83 1.837 3.162 0 .13-.007.26-.02.382l-1.954 3.374-3.817 5.238-.192.287a3.618 3.618 0 0 1-2.383 1.339v3.032a6.629 6.629 0 0 0 4.814-2.568l.041-.048.192-.293 4.022-5.512.8-1.051.006-.007.007-.007c.116-.143.232-.3.334-.45h.007a7.013 7.013 0 0 0 1.127-3.334c.007-.136.014-.266.014-.402a6.549 6.549 0 0 0-.922-3.395Zm4.166 6.68a8.388 8.388 0 0 0-2.91-2.172c-.116.703-.389 1.81-1.072 2.834a5.239 5.239 0 0 1 1.687 1.311 5.261 5.261 0 0 1 1.277 3.428c.007 1.4-.546 2.725-1.557 3.743a5.4 5.4 0 0 1-3.858 1.618h-.697l-8.14-.02.047-10.217c-.109-.006-1.509-.075-2.479.697a1.61 1.61 0 0 0-.594 1.263l.048 11.248 11.145.048h.663a8.39 8.39 0 0 0 5.996-2.506c1.584-1.592 2.445-3.681 2.431-5.887a8.197 8.197 0 0 0-1.987-5.389Z" fill="#fff"/></svg>
